!!!COM: Palestrina, Giovanni Perluigi da
!!!OPR: Missa Salvum me fac
!!!OTL: Gloria
**kern	**kern	**kern	**kern	**kern
*Ibass	*Itenor	*Icalto	*Icant	*Icant
!Bassus	!Tenor	!Altus	!Cantus 2	!Cantus 1
*clefF4	*clefGv2	*clefG2	*clefG2	*clefG2
*k[b-]	*k[b-]	*k[b-]	*k[b-]	*k[b-]
*G:dor	*G:dor	*G:dor	*G:dor	*G:dor
*M4/2	*M4/2	*M4/2	*M4/2	*M4/2
=1	=1	=1	=1	=1
0r	0G	0d	0b	0g
=2	=2	=2	=2	=2
0r	1c	1e	1cc	1g
.	1B-	1f	1dd	1b-
=3	=3	=3	=3	=3
0r	1G	1g	1dd	1b-
.	1d	[1f	1dd	1a
=4	=4	=4	=4	=4
0r	2A	2f]	2cc	2a
.	1B-	2f	1b-	1dd
.	.	2.f	.	.
.	2F	.	2a	2cc
.	.	4f	.	.
=5	=5	=5	=5	=5
0r	2F	1f	1a	1cc
.	2.f	.	.	.
.	.	2r	1a	2.ff
.	4e-	.	.	.
.	4d	[2f	.	.
.	4c	.	.	4ee-
=6	=6	=6	=6	=6
0r	1B-	2f]	2.b-	4dd
.	.	.	.	4cc
.	.	2d	.	2dd
.	.	.	4cc	.
.	2G	2.g	2dd	2b-
.	[2c	.	[2cc	[2ee-
.	.	4f	.	.
=7	=7	=7	=7	=7
0r	2c]	4g	2cc]	2ee-]
.	.	4a	.	.
.	2B-	2b-	2dd	2dd
.	1c	2a	1ee-	2cc
.	.	[2g	.	2b-
=8	=8	=8	=8	=8
0D	2d	2g]	0dd	0a
.	1d	4f	.	.
.	.	4e	.	.
.	.	2f	.	.
.	[2f	2a	.	.
=9	=9	=9	=9	=9
1F	4f]	1a	0r	0r
.	4e	.	.	.
.	1d	.	.	.
1E	.	1g	.	.
.	2c#	.	.	.
=10	=10	=10	=10	=10
[0D	0d	1f	1a	2r
.	.	.	.	1dd
.	.	2r	2b-	.
.	.	2d	4a	[2ff
.	.	.	4g	.
=11	=11	=11	=11	=11
1D]	0r	1f	1a	4ff]
.	.	.	.	4ee
.	.	.	.	1dd
1r	.	1e	1g	.
.	.	.	.	2cc#
=12	=12	=12	=12	=12
1.G	1.g	1d	2.b-	2dd
.	.	.	.	1b-
.	.	.	4cc	.
.	.	2r	2dd	.
2G	2g	[2d	2dd	2b-
=13	=13	=13	=13	=13
1B-	1f	2d]	2dd	2.b-
.	.	2d	2.ff	.
.	.	.	.	4cc
2B-	2d	2f	.	1dd
.	.	.	4ee	.
2B-	2d	2g	2dd	.
=14	=14	=14	=14	=14
0A	2.f	1a	2cc	0r
.	.	.	2.dd	.
.	8e	.	.	.
.	8d	.	.	.
.	2e	1a	.	.
.	.	.	8cc	.
.	.	.	8b	.
.	[2a	.	2cc#	.
=15	=15	=15	=15	=15
1.d	4a]	2r	1dd	1.ff
.	4g	.	.	.
.	4f	1a	.	.
.	4e	.	.	.
.	2d	.	1r	.
2c	2e	2a	.	2ee
=16	=16	=16	=16	=16
2.B-	1f	0b-	1r	2.dd
4A	.	.	.	4cc
4G	1g	.	[1dd	4b-
4F#	.	.	.	4a
[2G	.	.	.	[2b-
=17	=17	=17	=17	=17
2G]	0d	1g	2dd]	2b-]
4F	.	.	2dd	4a
4E-	.	.	.	4g
2D	.	1f#	2dd	2a
2D	.	.	2dd	2b
=18	=18	=18	=18	=18
1C	1G	1g	1ee-	1cc
1G	2r	2r	1dd	2.b-
.	2G	2g	.	.
.	.	.	.	4cc
=19	=19	=19	=19	=19
2G	2B-	2g	2dd	2dd
2C	2c	2g	2cc	1ee-
2.E-	4G	1g	[1b-	.
.	4A	.	.	.
.	4B-	.	.	2ee-
4D	4c	.	.	.
=20	=20	=20	=20	=20
4BB-	4d	2.f	2b-]	1.dd
4C	4e-	.	.	.
4D	2.f	.	4a	.
4E-	.	4e-	4g	.
2F	.	4d	2a	.
.	4e-	4c	.	.
[2G	4d	4B-	[2b-	2dd
.	4c	4c	.	.
=21	=21	=21	=21	=21
2G]	2B-	4d	4b-]	1g
.	.	8c	4a	.
.	.	8d	.	.
2C	2c	2e-	1g	.
1D	1A	2.d	.	2r
.	.	.	2f#	[2dd
.	.	4c	.	.
=22	=22	=22	=22	=22
0G	2G	1B-	1g	2dd]
.	1d	.	.	2dd
.	.	2r	2r	1g
.	2d	[2b-	[2dd	.
=23	=23	=23	=23	=23
0r	0G	2b-]	2dd]	2.b-
.	.	2g	2dd	.
.	.	.	.	4cc
.	.	1b-	2g	[1dd
.	.	.	[2gg	.
=24	=24	=24	=24	=24
0r	1d	1a	2gg]	2dd]
.	.	.	2ff	2dd
.	2c	2cc	2ee-	2g
.	2B-	2f	[2dd	[2b-
=25	=25	=25	=25	=25
1r	1e-	1g	4dd]	4b-]
.	.	.	8cc	4a
.	.	.	8b-	.
.	.	.	2cc	2g
2r	2d	2a	[1dd	2f
[2G	[2d	[2g	.	[2b-
=26	=26	=26	=26	=26
2G]	2d]	2g]	1dd]	2b-]
2G	2d	2g	.	2b-
1C	1e-	1g	1r	1cc
=27	=27	=27	=27	=27
2G	2d	2g	0r	2b-
2G	2B-	2d	.	2.b-
2G	2d	2B-	.	.
.	.	.	.	4g
2F	[2f	2c	.	2a
=28	=28	=28	=28	=28
1B-	4f]	2.d	1r	2f
.	4e	.	.	.
.	1d	.	.	2g
.	.	4e	.	.
1A	.	4f	2r	1a
.	.	8e	.	.
.	.	8d	.	.
.	2c#	2e	2a	.
=29	=29	=29	=29	=29
2r	1d	2f	2a	0r
2G	.	2g	2.b-	.
2G	2r	1d	.	.
.	.	.	4a	.
[2B-	2d	.	2g	.
=30	=30	=30	=30	=30
2B-]	2d	1r	2.f	0r
4A	1f	.	.	.
4G	.	.	4g	.
2F	.	2r	2a	.
2G	4e-	2g	2b-	.
.	4d	.	.	.
=31	=31	=31	=31	=31
2C	2e-	2g	2cc	0r
2D	2.d	1b-	2f	.
1E-	.	.	1g	.
.	4c	.	.	.
.	4c	4a	.	.
.	4B-	4g	.	.
=32	=32	=32	=32	=32
1D	1d	1f#	1a	2r
.	.	.	.	2dd
1r	2G	2g	2b-	2dd
.	2A	2c	[2a	[2ff
=33	=33	=33	=33	=33
1r	1B-	1d	2a]	2ff]
.	.	.	2g	4ee
.	.	.	.	4dd
2r	1A	2e	1a	2cc#
2D	.	[2f	.	2dd
=34	=34	=34	=34	=34
2D	2r	2f]	0ff	1a
1F	2A	4e	.	.
.	.	4d	.	.
.	2A	2.c	.	2a
4E	[2c	.	.	2a
4D	.	4d	.	.
=35	=35	=35	=35	=35
2C	4c]	2e	2ee	1a
.	4B-	.	.	.
2D	4A	2f	2.dd	.
.	4G	.	.	.
1AA	2.A	1e	.	2a
.	.	.	8cc	.
.	.	.	8b	.
.	.	.	2cc#	2a
.	4G	.	.	.
=36	=36	=36	=36	=36
0r	2F#	1d	2dd	2a
.	2G	.	2dd	1b-
.	1d	1r	2dd	.
.	.	.	[2ff	4a
.	.	.	.	4g
=37	=37	=37	=37	=37
0r	1r	0r	2ff]	2f
.	.	.	4ee	2g
.	.	.	4dd	.
.	2r	.	2cc#	2a
.	2d	.	2dd	2f
=38	=38	=38	=38	=38
0r	2d	2r	1a	4f
.	.	.	.	4g
.	1f	2a	.	4a
.	.	.	.	4b-
.	.	2a	2r	2.cc
.	4e-	[2cc	2g	.
.	4d	.	.	4dd
=39	=39	=39	=39	=39
0r	2c	2cc]	2g	2ee-
.	2d	4b-	1b-	2.dd
.	.	4a	.	.
.	1e-	1g	.	.
.	.	.	.	8cc
.	.	.	.	8b-
.	.	.	4a	2cc
.	.	.	4g	.
=40	=40	=40	=40	=40
0r	1d	2a	2f	1dd
.	.	1f	2d	.
.	1B-	.	1dd	1ff
.	.	[2b-	.	.
=41	=41	=41	=41	=41
1r	2f	2b-]	2cc	2ff
.	2f	2a	2cc	2ff
2r	1B-	2b-	2b-	2dd
2G	.	2g	2dd	2b-
=42	=42	=42	=42	=42
2G	0r	2b-	2dd	2g
2F#	.	2a	2dd	2a
1G	.	1g	1dd	1b-
=43	=43	=43	=43	=43
1D	2r	1f	2dd	0a
.	1d	.	1ff	.
1r	.	2d	.	.
.	2c#	2e	2ee	.
=44	=44	=44	=44	=44
1r	2d	2f	2dd	2r
.	2d	2f	2dd	2.a
2r	1A	2.e	2cc	.
.	.	.	.	4b
[2A	.	.	[2a	4cc
.	.	4d	.	4dd
=45	=45	=45	=45	=45
2A]	2r	2c#	2a]	4ee
.	.	.	.	4ff
2G	1d	2d	2b-	2gg
2A	.	2r	[1a	2ff
2A	2c#	2e	.	[2ee
=46	=46	=46	=46	=46
1D	2d	1f	1a]	4ee]
.	.	.	.	4dd
.	2d	.	.	1dd
1r	1A	2e	1a	.
.	.	2e	.	2cc#
=47	=47	=47	=47	=47
1r	1r	1d	1a	1dd
[1D	[1d	[1a	[1dd	[1ff
=48	=48	=48	=48	=48
1D]	1d]	1a]	1dd]	1ff]
1A	1c#	1a	1ee	1ee
=49	=49	=49	=49	=49
0D	1d	2.f	0ff	0dd
.	.	4e	.	.
.	[1A	1d	.	.
=50	=50	=50	=50	=50
1AA	2A]	1e	0ee	1cc#
.	1e	.	.	.
[1A	.	2r	.	2r
.	2e	[2c	.	[2a
=51	=51	=51	=51	=51
2A]	1.e	2c]	0r	2a]
2A	.	2c	.	2a
1A	.	1c	.	1a
.	[2f	.	.	.
=52	=52	=52	=52	=52
1B-	2f]	2.f	0r	1dd
.	4e	.	.	.
.	4d	4g	.	.
1A	2e	2a	.	[1cc
.	[2c	2e	.	.
=53	=53	=53	=53	=53
1F	2c]	1a	0r	2cc]
.	1d	.	.	2a
1G	.	[1g	.	1b-
.	[2e	.	.	.
=54	=54	=54	=54	=54
0A	2e]	2g]	0r	0a
.	1d	2f	.	.
.	.	1e	.	.
.	2c#	.	.	.
=55	=55	=55	=55	=55
[0D	0d	2d	2r	1a
.	.	1f#	1a	.
.	.	.	.	2r
.	.	2f#	2a	[2dd
=56	=56	=56	=56	=56
1D]	0r	1f#	1a	2dd]
.	.	.	.	2dd
1r	.	1g	1b	1dd
=57	=57	=57	=57	=57
1r	2r	1c	1cc	1ee-
.	1g	.	.	.
[1D	.	[1d	1a	2.dd
.	2f	.	.	.
.	.	.	.	4cc
=58	=58	=58	=58	=58
2D]	2d	0d]	2r	2b-
2D	4f	.	2.dd	4a
.	4e	.	.	4g
1D	4d	.	.	2a
.	4c	.	4dd	.
.	4B-	.	2dd	[2b-
.	4A	.	.	.
=59	=59	=59	=59	=59
1E-	1G	1r	2b-	4b-]
.	.	.	.	4a
.	.	.	2cc	1g
1D	1A	[1d	1dd	.
.	.	.	.	2f#
=60	=60	=60	=60	=60
1G	0G	2d]	1b	[0g
.	.	2d	.	.
2G	.	1d	2b	.
2G	.	.	2b	.
=61	=61	=61	=61	=61
0C	[0G	0e-	0cc	1g_
.	.	.	.	1g_
=62	=62	=62	=62	=62
0G	0G]	0d	0b	0g]
=63	=63	=63	=63	=63
0r	0r	1r	0r	0g
.	.	1g	.	.
=64	=64	=64	=64	=64
0r	0r	1b-	0r	1dd
.	.	2b-	.	2dd
.	.	2a	.	2cc
=65	=65	=65	=65	=65
0r	0r	2b-	0r	2dd
.	.	4a	.	2ee
.	.	4g	.	.
.	.	2f	.	2.ff
.	.	2d	.	.
.	.	.	.	4ee-
=66	=66	=66	=66	=66
0r	[0G	2.b-	1r	2dd
.	.	.	.	2cc
.	.	4a	.	.
.	.	2g	[1dd	2b-
.	.	2a	.	2a
=67	=67	=67	=67	=67
0r	1G]	1b-	1dd]	1g
.	1d	2a	1ff	2f
.	.	4d	.	[2a
.	.	4e	.	.
=68	=68	=68	=68	=68
0r	2d	4f	2ff	4a]
.	.	4g	.	4b-
.	2c	1a	2ee	2cc
.	2d	.	2ff	1b-
.	2e	2g	4ee	.
.	.	.	4dd	.
=69	=69	=69	=69	=69
0r	2.f	2a	2cc	1.a
.	.	2d	2a	.
.	4e	.	.	.
.	2d	2d	2ff	.
.	2c	2e	2ee	2a
=70	=70	=70	=70	=70
0r	2B-	2.f	2dd	2b-
.	2A	.	2cc	2cc
.	.	4e	.	.
.	1G	1g	1b-	1dd
=71	=71	=71	=71	=71
0D	1d	1f#	1a	[0dd
.	2r	1a	1f#	.
.	2d	.	.	.
=72	=72	=72	=72	=72
1G	1d	1b-	1g	0dd]
2G	2.d	2b-	2g	.
2F	.	2a	2a	.
.	4c	.	.	.
=73	=73	=73	=73	=73
2G	2B-	2g	2b-	1r
2A	2A	2e	2cc	.
2.B-	2.G	[1g	2.dd	2r
.	.	.	.	2dd
4A	4A	.	4cc	.
=74	=74	=74	=74	=74
2G	4B-	2g]	2b-	2dd
.	4G	.	.	.
2F	1d	2a	2a	2dd
1E-	.	2b-	2.g	[1gg
.	2c	2g	.	.
.	.	.	4a	.
=75	=75	=75	=75	=75
1D	1d	2r	2b-	2gg]
.	.	1d	2a	2ff
[1G	2B-	.	2r	2r
.	2G	[2b-	[2g	[2dd
=76	=76	=76	=76	=76
2G]	2.B-	4b-]	2g]	2dd]
.	.	4a	.	.
2G	.	1g	2b-	2dd
.	4c	.	.	.
1D	[1d	.	1a	1dd
.	.	2f#	.	.
=77	=77	=77	=77	=77
1G	2d]	1g	1b	1dd
.	2d	.	.	.
1C	1c	1g	1cc	1ee-
=78	=78	=78	=78	=78
[0G	0d	1g	0b	1dd
.	.	2r	.	1g
.	.	2g	.	.
=79	=79	=79	=79	=79
0G]	2r	2.b-	2r	2.dd
.	2G	.	2g	.
.	.	4a	.	4cc
.	4G	1g	1dd	1b-
.	4A	.	.	.
.	4B-	.	.	.
.	4c	.	.	.
=80	=80	=80	=80	=80
0r	4d	1.f	2dd	2a
.	4e	.	.	.
.	2f	.	2cc	2a
.	2d	.	2dd	2b-
.	2c	2g	2ee	2cc
=81	=81	=81	=81	=81
0r	1.B-	2b-	2.ff	2.dd
.	.	4B-	.	.
.	.	4c	4ee-	4cc
.	.	4d	2dd	2b-
.	.	4e-	.	.
.	2F	2f	2cc	2a
=82	=82	=82	=82	=82
0r	0G	1d	2b-	2g
.	.	.	2a	2a
.	.	[1d	1g	1b-
=83	=83	=83	=83	=83
1r	1d	1d]	1f#	1a
[1G	2r	2.b-	2.g	[1dd
.	[2B-	.	.	.
.	.	4a	4a	.
=84	=84	=84	=84	=84
1G]	2B-]	1.g	1.b-	1dd]
.	2G	.	.	.
1G	2.B-	.	.	1dd
.	.	2g	2b-	.
.	4c	.	.	.
=85	=85	=85	=85	=85
[0D	0d	2f	2a	1dd
.	.	1f	1a	.
.	.	.	.	2r
.	.	2d	2a	2ff
=86	=86	=86	=86	=86
0D]	2r	2.f	2a	2dd
.	2f	.	2a	2.ff
.	.	4g	.	.
.	2d	2a	2.f	.
.	.	.	.	4ee
.	[2f	[2a	.	2dd
.	.	.	4g	.
=87	=87	=87	=87	=87
0r	4f]	4a]	0a	2cc
.	4e	4g	.	.
.	1d	4f	.	4dd
.	.	4e	.	4ee
.	.	2d	.	4ff
.	.	.	.	8ee
.	.	.	.	8ff
.	2c#	2e	.	[2ee
=88	=88	=88	=88	=88
0r	1d	2.f	1a	4ee]
.	.	.	.	4dd
.	.	.	.	1dd
.	.	8e	.	.
.	.	8d	.	.
.	1A	1e	2r	.
.	.	.	2a	2cc#
=89	=89	=89	=89	=89
1B-	2r	1d	2f	[0dd
.	2d	.	2.b-	.
2G	2B-	2r	.	.
.	.	.	4a	.
[2B-	[2d	2d	2g	.
=90	=90	=90	=90	=90
4B-]	4d]	2B-	2f	0dd]
4A	4c	.	.	.
1G	4B-	1d	4g	.
.	4A	.	4a	.
.	2G	.	4b-	.
.	.	.	8a	.
.	.	.	8b-	.
2F#	2A	2d	[2a	.
=91	=91	=91	=91	=91
1G	2B-	2d	4a]	0dd
.	.	.	4g	.
.	2B-	2d	1g	.
1D	1A	1d	.	.
.	.	.	2f#	.
=92	=92	=92	=92	=92
1r	0G	1d	1g	1b
1C	.	1g	1ee-	1cc
=93	=93	=93	=93	=93
1G	0r	1g	1dd	1b-
2G	.	2d	2b-	2g
2F	.	2f	2cc	2a
=94	=94	=94	=94	=94
1.B-	0r	4f	1.dd	1b-
.	.	4e-	.	.
.	.	4d	.	.
.	.	4c	.	.
.	.	2B-	.	1f
2A	.	2c	2cc	.
=95	=95	=95	=95	=95
2G	0r	1d	2b-	2g
2F	.	.	2a	2a
1E-	.	1g	1g	2b-
.	.	.	.	2cc
=96	=96	=96	=96	=96
1D	1A	2f#	2a	2dd
.	.	1a	1dd	1ff
1r	1A	.	.	.
.	.	2a	2cc	2ee
=97	=97	=97	=97	=97
0r	1.d	2.a	1.ff	1dd
.	.	4g	.	.
.	.	2f	.	2a
.	2c	2g	2ee	[2cc
=98	=98	=98	=98	=98
1r	1.f	2a	2cc	4cc]
.	.	.	.	4b-
.	.	1d	1dd	4a
.	.	.	.	4g
1D	.	.	.	1a
.	2e	2e	2cc	.
=99	=99	=99	=99	=99
1D	2d	1f	2b-	0dd
.	2c	.	1a	.
1G	1B-	1d	.	.
.	.	.	2g	.
=100	=100	=100	=100	=100
1F	2A	2.f	4a	0r
.	.	.	4b-	.
.	1f	.	4cc	.
.	.	4e-	4a	.
[1B-	.	2d	2b-	.
.	2e-	2c	2cc	.
=101	=101	=101	=101	=101
2B-]	2d	2B-	0dd	0r
2A	2c	2c	.	.
2G	2B-	1d	.	.
2F#	2A	.	.	.
=102	=102	=102	=102	=102
1G	2.B-	2d	2r	2r
.	.	1g	1b-	1dd
.	4c	.	.	.
1D	1d	.	.	.
.	.	2f#	2a	2dd
=103	=103	=103	=103	=103
0r	0r	2g	2b-	2dd
.	.	1b-	1dd	2dd
.	.	.	.	1ff
.	.	2a	2cc	.
=104	=104	=104	=104	=104
0r	0r	2f	2a	2ff
.	.	2.g	2.b-	2.ee
.	.	4f	4a	4dd
.	.	4f	4a	[2dd
.	.	8e	8g	.
.	.	8d	8f	.
=105	=105	=105	=105	=105
1r	1r	1e	1g	2dd]
.	.	.	.	2cc#
2r	2r	1d	2a	2dd
[2G	2d	.	2g	[2b-
=106	=106	=106	=106	=106
2G]	1d	0r	1dd	2b-]
2F#	.	.	.	2a
2G	1d	.	1dd	2b-
[2B-	.	.	.	[2dd
=107	=107	=107	=107	=107
2B-]	1.f	0r	0r	2dd]
4A	.	.	.	4cc
4G	.	.	.	4b-
2F	.	.	.	2a
[2G	4e	.	.	[2b-
.	4d	.	.	.
=108	=108	=108	=108	=108
2G]	4e	1r	0r	2b-]
.	4d	.	.	.
2F	1d	.	.	2a
2E	.	2r	.	1g
2E	2c#	[2g	.	.
=109	=109	=109	=109	=109
1D	1d	2g]	2r	2b-
.	.	2f#	1dd	2a
1r	1r	2g	.	2b-
.	.	[2b-	2b-	[2dd
=110	=110	=110	=110	=110
0r	0r	2b-]	2dd	2dd]
.	.	4a	2.ff	4cc
.	.	4g	.	4b-
.	.	2f	.	2a
.	.	.	4ee-	.
.	.	[2g	4dd	[2b-
.	.	.	4cc	.
=111	=111	=111	=111	=111
0r	0r	2g]	2b-	4b-]
.	.	.	.	4g
.	.	2f	2.cc	2.a
.	.	1e-	.	.
.	.	.	4b-	4g
.	.	.	2g	[2g
=112	=112	=112	=112	=112
0r	0r	1d	2a	2g]
.	.	.	2a	2f#
.	.	1r	1b	1g
=113	=113	=113	=113	=113
0C	0c	0g	0cc	0ee-
=114	=114	=114	=114	=114
1G	0d	1g	1.b-	1dd
[1G	.	[1b-	.	[1g
.	.	.	2cc	.
=115	=115	=115	=115	=115
2G]	[0G	2b-]	1dd	2g]
2F	.	2a	.	2a
2E-	.	2g	[1ee-	1b-
2D	.	2f	.	.
=116	=116	=116	=116	=116
0C	1G]	2.e-	0ee-]	0cc
.	.	4d	.	.
.	1A	1c	.	.
=117	=117	=117	=117	=117
0BB-	2B-	2d	1dd	1f
.	1d	2.B-	.	.
.	.	.	2r	1b-
.	.	4c	.	.
.	[2f	4d	[2dd	.
.	.	4e	.	.
=118	=118	=118	=118	=118
0r	4f]	1f	2dd]	1a
.	4e	.	.	.
.	1d	.	1ff	.
.	.	2d	.	2f
.	2c	2e	2ee	[2a
=119	=119	=119	=119	=119
1r	2B-	2f	2dd	2a]
.	2B-	2d	2dd	2g
2r	2A	1e	2cc	2a
[2A	2e	.	[2a	[2cc
=120	=120	=120	=120	=120
2A]	4f	0r	2a]	2cc]
.	4e	.	.	.
1B-	4d	.	1f	1dd
.	4c	.	.	.
.	2B-	.	.	.
2A	2c	.	2f	2cc
=121	=121	=121	=121	=121
2G	2d	1r	2g	2b-
2G	2e	.	2g	2b-
1F	2.f	2r	2.cc	[1a
.	.	[2A	.	.
.	8e	.	4dd	.
.	8d	.	.	.
=122	=122	=122	=122	=122
2r	2c	2A]	2ee	1a]
1D	2d	2.a	2ff	.
.	1B-	.	1dd	1r
.	.	4a	.	.
[2d	.	2g	.	.
=123	=123	=123	=123	=123
4d]	1A	2f	0r	0r
4d	.	.	.	.
2c	.	2e	.	.
2B-	2r	2g	.	.
2A	[2e	2a	.	.
=124	=124	=124	=124	=124
2c	2e]	2g	0r	2r
2d	2.a	4f	.	1d
.	.	4e	.	.
1B-	.	1d	.	.
.	4a	.	.	.
.	2g	.	.	[2dd
=125	=125	=125	=125	=125
1A	2f	1a	0r	4dd]
.	.	.	.	4dd
.	2e	.	.	2cc
2G	2g	1d	.	2b-
4F	2a	.	.	2a
4G	.	.	.	.
=126	=126	=126	=126	=126
4A	1f	1r	2r	2cc
4F	.	.	.	.
2B-	.	.	1d	2dd
1G	1g	2r	.	2.b-
.	.	[2d	[2dd	.
.	.	.	.	8a
.	.	.	.	8g
=127	=127	=127	=127	=127
0r	2f	2d]	4dd]	2a
.	.	.	4dd	.
.	2e	2.g	2cc	2g
.	2d	.	2b-	2r
.	.	4g	.	.
.	2d	2f	2a	2dd
=128	=128	=128	=128	=128
0r	2A	2e	2cc	2ee
.	1d	2d	2dd	2.ff
.	.	2f	1b-	.
.	.	.	.	4ee
.	2G	2g	.	[2dd
=129	=129	=129	=129	=129
1r	1A	1e	1a	4dd]
.	.	.	.	8cc
.	.	.	.	8b
.	.	.	.	2cc#
2r	2d	[1d	2r	1dd
[2D	[2f	.	[2a	.
=130	=130	=130	=130	=130
2D]	2f]	1d]	2a]	2r
2.G	2.d	.	2.b-	1g
.	.	1r	.	.
4G	4e	.	4b-	.
2F	2f	.	2a	[2cc
=131	=131	=131	=131	=131
2E	2g	1r	2cc	4cc]
.	.	.	.	4cc
2D	2f	.	2dd	2b-
2F	4f	2r	2cc	2a
.	4e	.	.	.
[2G	4d	[2d	2b-	2g
.	4c	.	.	.
=132	=132	=132	=132	=132
2G]	2B-	2d]	1g	2b-
2C	2G	2.g	.	2cc
1D	2r	.	2dd	2.a
.	.	4g	.	.
.	[2A	2f	2dd	.
.	.	.	.	4b
=133	=133	=133	=133	=133
1r	2A]	2e	2ee	2cc#
.	2.d	2d	2.ff	2dd
1D	.	1f	.	4d
.	4c	.	4ee	4e
.	2B-	.	2dd	4f
.	.	.	.	4g
=134	=134	=134	=134	=134
2F	2A	2f	2cc	2a
1G	2G	2.d	4b-	2.b-
.	.	.	4a	.
.	2B-	.	1g	.
.	.	8c	.	4a
.	.	8d	.	.
2C	2c	2e-	.	[2g
=135	=135	=135	=135	=135
0D	0A	0d	0dd	2g]
.	.	.	.	4f
.	.	.	.	4e
.	.	.	.	1f#
=136	=136	=136	=136	=136
[0G	[0G	[0d	[0b	[0g
=137	=137	=137	=137	=137
0G]	0G]	0d]	0b]	0g]
==	==	==	==	==
*-	*-	*-	*-	*-
!!!CDT: 1525/^1526/-1594/2/2
!!!OCY: Italia
!!!AGN: Mass (Parody)
!!!AST: renaissance, vocal
!!!ASW: Motet 1538 (Jacquet)
!!!PWK: Masses, Book 2
!!!RNB: Cadence finals: D
!!!YOR: Le Opere Complete, v. 4, p. 126
!!!YOO: Rome, Italy: Fratelli Scalera
!!!END: 1992//
!!!EED: John Miller
!!!YEC: Copyright 2000, John Miller
!!!YEN: United States of America
!!!YEM: Rights to all derivative electronic formats reserved.
!!!YEM: Refer to licensing agreement for further details.
!!!YEM: This file must be accompanied by the licensing agreement.
!!!YEM: A copy of the licensing agreement may be found at http://www.music-cog.ohio-state.edu/HumdrumDatabases/Palestrina/license.txt
!!!EMD: converted to Humdrum by Bret Aarden
